X: 606
T: Dü Çeşmim Hûn ile Doldu
C: Şevki Bey
O: Turkey
F: http://compmusic.upf.edu/node/140
N: yegah--sarki--aksak--du_cesmim--sevki_bey
N: makam= yegah
N: form= sarki
N: usul= aksak = 9/8
M: 9/8
L: 1/16
K: C _2/4B ^f  
Q: 1/4=120
%%MIDI tuningsystem comma53
G2dd d2d2 d4 edcB A2 | G2 ccc2 c2c4dc BAG2  | 
w:  ARANAĞME  |   | 
G2BB B2B2 BcBA A2G2 ^3/4F2 | E^3/4F GAAG =FEED D^3/4CD4z2  | 
w:   |   | 
G2dd d2d2 d4 edcB A2 | G2 ccc2 c2c4dc BAG2  | 
w:  ARANAĞME  |   | 
G2BB B2B2 BcBA A2G2 ^3/4F2 | E^3/4F GAAG =FEED D^3/4CD4z2  | 
w:   |   | 
G2d6 d2e2 d2c2 B2 | g2 ^3/4fef2 d2e2 ^3/4c2d4z2  | \
w:  Dü  çeş mim  *  hûn   |  i le  *  *  *  dol *  du    | 
d2g2 ^3/4f2e2 d2c2 B2A2 G2 | 
w:  Ne dir  *  *  bil *  mem   | 
^3/4F2 FEF2 D2E2 ^3/4C2D4z2  | ^3/4f2g2 f2e2 =fed^3/4c {e}d6 | \
w:  ba na  *  *  *  n'ol *  du    |  Gö nül  *  *  hâ *  *  *  *  tır   | 
ag ^3/4f4 d2e2 ^3/4c2d4z2  | 
w:  ha *  râb  *  ol *  du    | 
d2g2 =f2e2 d2c2 B2A2 G2 | A2 d2c2 B2B2 A2A4z2  | \
w:  Ba na  *  *  ça *  re   |  e fen *  *  dim *  den    | 
G2=B6 A2G2 ^3/4F2E2 D2 | 
w:  Gö rür sem  *  il  | 
E2 =F4 E2DE D^3/4CD4z2  | |


